X: 2
T: Roslyn Castle
R: reel
M: 4/4
L: 1/8
K: Emin
GF | ~E2 B>c B2 (AB) | (cB)(~AG) ~F2 G>F | ~E2 e>f g2 (fe) | (^de)(fd) B2 (AB) |(cB)(~AG) F2 GA | (BG)(FE) ~^d2 (ef) | (ge)(f^d) (ec)(BA) | G2 ~F>E) E2 :|


Tune 4150	Setting 28798

